weblate_web/static/img/icon-linkedin.svg

<svg viewBox="0 0 18 18"><path fill="#fff" d="M16 0a2 2 0 012 2v14a2 2 0 01-2 2H2a2 2 0 01-2-2V2a2 2 0 012-2h14m-.5 15.5v-5.3a3.26 3.26 0 00-3.26-3.26c-.85 0-1.84.52-2.32 1.3V7.13H7.13v8.37h2.79v-4.93c0-.77.62-1.4 1.39-1.4a1.4 1.4 0 011.4 1.4v4.93h2.79M3.88 5.56a1.68 1.68 0 001.68-1.68c0-.93-.75-1.69-1.68-1.69a1.69 1.69 0 00-1.69 1.69c0 .93.76 1.68 1.69 1.68m1.39 9.94V7.13H2.5v8.37z"/></svg>

<?xml version="1.0" encoding="UTF-8" standalone="no"?>
<svg
   xmlns:dc="http://purl.org/dc/elements/1.1/"
   xmlns:cc="http://creativecommons.org/ns#"
   xmlns:rdf="http://www.w3.org/1999/02/22-rdf-syntax-ns#"
   xmlns:svg="http://www.w3.org/2000/svg"
   xmlns="http://www.w3.org/2000/svg"
   xmlns:sodipodi="http://sodipodi.sourceforge.net/DTD/sodipodi-0.dtd"
   xmlns:inkscape="http://www.inkscape.org/namespaces/inkscape"
   version="1.1"
   width="18"
   height="18"
   viewBox="0 0 18 18"
   id="svg4"
   sodipodi:docname="icon-linkedin.svg"
   inkscape:version="0.92.4 (5da689c313, 2019-01-14)">
  <metadata
     id="metadata10">
    <rdf:RDF>
      <cc:Work
         rdf:about="">
        <dc:format>image/svg+xml</dc:format>
        <dc:type
           rdf:resource="http://purl.org/dc/dcmitype/StillImage" />
        <dc:title></dc:title>
      </cc:Work>
    </rdf:RDF>
  </metadata>
  <defs
     id="defs8" />
  <sodipodi:namedview
     pagecolor="#ffffff"
     bordercolor="#666666"
     borderopacity="1"
     objecttolerance="10"
     gridtolerance="10"
     guidetolerance="10"
     inkscape:pageopacity="0"
     inkscape:pageshadow="2"
     inkscape:window-width="1920"
     inkscape:window-height="1027"
     id="namedview6"
     showgrid="false"
     fit-margin-top="0"
     fit-margin-left="0"
     fit-margin-right="0"
     fit-margin-bottom="0"
     inkscape:zoom="9.8333333"
     inkscape:cx="3.9661017"
     inkscape:cy="9"
     inkscape:window-x="-8"
     inkscape:window-y="-8"
     inkscape:window-maximized="1"
     inkscape:current-layer="svg4" />
  <path
     d="m 16,0 a 2,2 0 0 1 2,2 v 14 a 2,2 0 0 1 -2,2 H 2 A 2,2 0 0 1 0,16 V 2 A 2,2 0 0 1 2,0 H 16 M 15.5,15.5 V 10.2 A 3.26,3.26 0 0 0 12.24,6.94 c -0.85,0 -1.84,0.52 -2.32,1.3 V 7.13 H 7.13 v 8.37 h 2.79 v -4.93 c 0,-0.77 0.62,-1.4 1.39,-1.4 a 1.4,1.4 0 0 1 1.4,1.4 V 15.5 H 15.5 M 3.88,5.56 A 1.68,1.68 0 0 0 5.56,3.88 C 5.56,2.95 4.81,2.19 3.88,2.19 A 1.69,1.69 0 0 0 2.19,3.88 c 0,0.93 0.76,1.68 1.69,1.68 M 5.27,15.5 V 7.13 H 2.5 v 8.37 z"
     id="path2"
     inkscape:connector-curvature="0"
     fill="#ffffff" />
</svg>
